**kern	**kern	**dynam
*part1	*part1	*part1
*staff2	*staff1	*
*I"Piano	*	*
*clefF4	*clefG2	*
*k[b-e-a-]	*k[b-e-a-]	*
=1	=1	=1
1r	2gn	.
.	2e-	.
*clefG2	*	*
=	=	=
4r	2.cc	.
(4a-	.	.
4f	.	.
4e-	4cc	.
=	=	=
4d	2.b-	.
4g	.	.
4e-	.	.
4d)	4b-	.
=	=	=
!	!LO:TX:b:i:t=cresc.	!
(4c	4a-	.
8fL	4a-	.
8e-J	.	.
4d	4a-	.
4c)	4a-	.
*clefF4	*	*
=	=	=
(2Bn	(2d 2f 2a-	sf
4c)	4e-) 4g	.
4A-	4e- 4a- 4cc	p
=	=	=
4B-X	4r	.
4r	4e- 4g 4b-	.
4BBB- 4BB-	4r	.
4r	4F 4A- 4d	.
=	=	=
4EE- 4E-	4G 4e-	.
(4B-	(8ggL	.
.	8ffJ	.
4G	8ee-L	.
.	8dd	.
4E-)	8cc	.
.	8b-J)	.
=	=	=
*	*^	*
(8cL	[2a-	[1a-	.
8Bn	.	.	.
8c	.	.	.
8BJ)	.	.	.
[2c	(8a-L]	.	.
.	8ee-	.	.
.	8dd	.	.
.	8ee-J)	.	.
*	*v	*v	*
=	=	=
*-	*-	*-
!!!system-decoration: {(s1,s2)}
